public/img/svgs/shapes/quote-block-shape.svg

<svg width="12" height="160" viewBox="0 0 12 160" fill="none" xmlns="http://www.w3.org/2000/svg">
<path d="M3.73653 7.14546C5.31736 8.73871 6.53893 10.0423 6.53893 12.8425C6.53893 15.6427 5.31736 16.898 3.73653 18.5395C3.37724 18.8775 3.08982 19.2155 2.73054 19.6017C1.29342 21.1467 0 23.0779 0 26.2643C0 29.4025 1.29342 31.3337 2.73054 32.927C3.08982 33.3132 3.37724 33.6512 3.73653 33.9891C5.31736 35.5824 6.53893 36.8859 6.53893 39.6379C6.53893 42.4381 5.31736 43.6934 3.73653 45.2867C3.37724 45.6246 3.08982 45.9626 2.73054 46.3488C1.29342 47.8938 0 49.825 0 53.0115C0 56.1497 1.29342 58.0809 2.73054 59.6741C3.08982 60.0604 3.37724 60.3983 3.73653 60.7363C5.31736 62.3295 6.53893 63.6331 6.53893 66.385C6.53893 69.1853 5.31736 70.4406 3.73653 72.0338C3.37724 72.3718 3.08982 72.7097 2.73054 73.096C1.29342 74.6409 0 76.5721 0 79.7586C0 82.8968 1.29342 84.828 2.73054 86.4212C3.08982 86.8075 3.37724 87.1454 3.73653 87.4834C5.31736 89.0767 6.53893 90.3802 6.53893 93.1322C6.53893 95.9324 5.31736 97.1877 3.73653 98.7809C3.37724 99.1189 3.08982 99.4569 2.73054 99.8431C1.29342 101.388 0 103.319 0 106.506C0 109.644 1.29342 111.575 2.73054 113.168C3.08982 113.555 3.37724 113.893 3.73653 114.231C5.31736 115.824 6.53893 117.127 6.53893 119.879C6.53893 122.68 5.31736 123.935 3.73653 125.528C3.37724 125.866 3.08982 126.204 2.73054 126.59C1.29342 128.135 0 130.066 0 133.253C0 136.391 1.29342 138.322 2.73054 139.916C3.08982 140.302 3.37724 140.64 3.73653 140.978C5.31736 142.571 6.53893 143.874 6.53893 146.626C6.53893 149.427 5.31736 150.682 3.73653 152.275C3.37724 152.613 3.08982 152.951 2.73054 153.337C1.29342 154.882 0 156.814 0 160H5.46108C5.46108 157.2 6.68264 155.944 8.26347 154.351C9.98803 152.565 12 150.537 12 146.675C12 142.812 10.0599 140.785 8.26347 138.998C6.68264 137.405 5.46108 136.101 5.46108 133.349C5.46108 130.549 6.68264 129.294 8.26347 127.701C9.98803 125.914 12 123.887 12 120.024C12 116.162 10.0599 114.134 8.26347 112.348C6.68264 110.754 5.46108 109.451 5.46108 106.699C5.46108 103.899 6.68264 102.643 8.26347 101.05C9.98803 99.2637 12 97.236 12 93.3736C12 89.5112 10.0599 87.4834 8.26347 85.697C6.68264 84.1038 5.46108 82.8002 5.46108 80.0483C5.46108 77.248 6.68264 75.9928 8.26347 74.3995C9.98803 72.6132 12 70.5854 12 66.723C12 62.8606 10.0599 60.8328 8.26347 59.0465C6.68264 57.4532 5.46108 56.1497 5.46108 53.3977C5.46108 50.5975 6.68264 49.3422 8.26347 47.7489C9.98803 45.9626 12 43.9348 12 40.0724C12 36.21 10.0599 34.1823 8.26347 32.3959C6.68264 30.8027 5.46108 29.4991 5.46108 26.7471C5.46108 23.9469 6.68264 22.6916 8.26347 21.0501C9.98803 19.2637 12 17.236 12 13.3736C12 9.51117 10.0599 7.48343 8.26347 5.69707C6.68264 4.10382 5.46108 2.80023 5.46108 0H0C0 3.1382 1.29342 5.06943 2.73054 6.66266C3.08982 6.46954 3.4491 6.80751 3.73653 7.14546Z" fill="#77E8C6"/>
</svg>

<svg width="12" height="160" fill="none" xmlns="http://www.w3.org/2000/svg"><path d="M3.737 7.145c1.58 1.594 2.802 2.897 2.802 5.697 0 2.8-1.222 4.056-2.802 5.697-.36.338-.647.676-1.006 1.063C1.293 21.147 0 23.078 0 26.264c0 3.139 1.293 5.07 2.73 6.663.36.386.647.724 1.007 1.062 1.58 1.593 2.802 2.897 2.802 5.649 0 2.8-1.222 4.055-2.802 5.649-.36.338-.647.676-1.006 1.062C1.293 47.894 0 49.825 0 53.012c0 3.138 1.293 5.069 2.73 6.662.36.386.647.724 1.007 1.062 1.58 1.594 2.802 2.897 2.802 5.649 0 2.8-1.222 4.056-2.802 5.649-.36.338-.647.676-1.006 1.062C1.293 74.641 0 76.572 0 79.759c0 3.138 1.293 5.069 2.73 6.662.36.386.647.724 1.007 1.062 1.58 1.594 2.802 2.897 2.802 5.65 0 2.8-1.222 4.055-2.802 5.648-.36.338-.647.676-1.006 1.062C1.293 101.388 0 103.32 0 106.506c0 3.138 1.293 5.069 2.73 6.662.36.387.647.725 1.007 1.063 1.58 1.593 2.802 2.896 2.802 5.648 0 2.801-1.222 4.056-2.802 5.649-.36.338-.647.676-1.006 1.062C1.293 128.135 0 130.066 0 133.253c0 3.138 1.293 5.069 2.73 6.663.36.386.647.724 1.007 1.062 1.58 1.593 2.802 2.896 2.802 5.648 0 2.801-1.222 4.056-2.802 5.649-.36.338-.647.676-1.006 1.062C1.293 154.882 0 156.814 0 160h5.461c0-2.8 1.222-4.056 2.802-5.649 1.725-1.786 3.737-3.814 3.737-7.676 0-3.863-1.94-5.89-3.737-7.677-1.58-1.593-2.802-2.897-2.802-5.649 0-2.8 1.222-4.055 2.802-5.648 1.725-1.787 3.737-3.814 3.737-7.677 0-3.862-1.94-5.89-3.737-7.676-1.58-1.594-2.802-2.897-2.802-5.649 0-2.8 1.222-4.056 2.802-5.649C9.988 99.264 12 97.236 12 93.374c0-3.863-1.94-5.89-3.737-7.677-1.58-1.593-2.802-2.897-2.802-5.649 0-2.8 1.222-4.055 2.802-5.648C9.988 72.612 12 70.585 12 66.722c0-3.862-1.94-5.89-3.737-7.676-1.58-1.594-2.802-2.897-2.802-5.65 0-2.8 1.222-4.055 2.802-5.648C9.988 45.963 12 43.935 12 40.072c0-3.862-1.94-5.89-3.737-7.676-1.58-1.593-2.802-2.897-2.802-5.649 0-2.8 1.222-4.055 2.802-5.697C9.988 19.264 12 17.236 12 13.374c0-3.863-1.94-5.89-3.737-7.677C6.683 4.104 5.461 2.8 5.461 0H0c0 3.138 1.293 5.07 2.73 6.663.36-.193.72.145 1.007.482z" fill="#77E8C6"/></svg>
